!!!!SEGMENT: pl-wtm--a-43-184-99--001-003_stojowski-zygmunt--piec-piesni-op-11-no-3-nie-bede-cie-rwala.krn
!!!cenid: 18xx:4453
!!!COM: Stojowski, Zygmunt
!!!COM-rismID: pe41019736
!!!CDT: 1870-1946
!!!CNT: Polish
!!!GTL: Pięć pięśni op. 11
!!!OTL: No. 3. Nie będę cię rwała
!!!OMV: 003
!!!PDT: 1895
!!!AGN: Secular: Song
!!!YEC: Copyright 2022 Narodowy Instytut Fryderyka Chopina (https://polishscores.org)
!!!YEM: License CC-BY-4.0 (https://creativecommons.org/licenses/by/4.0)
!!!SMS-siglum: PL-Wtm
!!!SMS-shelfmark: A-43.184/99
!!!SMS-variant:
!!!SMS-altvar:
!!!SMS-shelfwork: 001-003 G
!!!NIFC-rismSourceID: 1001165241
!!!NIFC-rismChildID: 1001165241
!!!NIFC-islandoraID: pl-wtm:43123
!!!URL-pdf-islandora: https://repozytorium.nifc.pl/islandora/object/pl-wtm%3A43123/datastream/PDF/view
!!!URL-scan: https://polish.musicsources.pl/pl/lokalizacje/galeria/druki-muzyczne/22419/9 @EN{Scan on Polish Music Sources Website} @PL{Skany w portalu Dziedzictwo Muzyki Polskiej w otwartym dostępie}
!!!IIIF:
!!!ONB-nifc:
!!!OMD: Allegretto con moto.
!!!AIN: 1 piano 1 vox
!!!key: D
**kern	**kern	**dynam	**kern	**text	**text	**dynam
*part2	*part2	*part2	*part1	*part1	*part1	*part1
*staff3	*staff2	*	*staff1	*staff1	*staff1	*
*ICklav	*ICklav	*	*ICvox	*	*	*
*Ipiano	*Ipiano	*	*Ivox	*	*	*
*I"PIANO.	*I"PIANO.	*	*I"CANTO.	*	*	*
*clefF4	*clefG2	*	*clefG2	*	*	*
*k[f#c#]	*k[f#c#]	*	*k[f#c#]	*	*	*
*D:	*D:	*	*D:	*	*	*
*M2/4	*M2/4	*	*M2/4	*	*	*
=1	=1	=1	=1	=1	=1	=1
*ped	*	*	*	*	*	*
!	!LO:TX:b:i:t=legg.	!	!	!	!	!
8FF#'/	8r	p	2r	.	.	.
8r	(16c#/LL	.	.	.	.	.
.	16A/J	.	.	.	.	.
4r	8a/	.	.	.	.	.
.	8f#/J)	.	.	.	.	.
=2	=2	=2	=2	=2	=2	=2
8FF#'/	8r	.	2r	.	.	.
8r	(16c#/LL	.	.	.	.	.
.	16A/J	.	.	.	.	.
4r	8a/	.	.	.	.	.
.	8f#/J)	.	.	.	.	.
=3	=3	=3	=3	=3	=3	=3
8FF#'/	8r	.	2r	.	.	.
8r	(16c#/LL	.	.	.	.	.
.	16A/J	.	.	.	.	.
4r	8a/	.	.	.	.	.
.	8f#/J)	.	.	.	.	.
=4	=4	=4	=4	=4	=4	=4
8FF#'/	8r	.	2r	.	.	.
8r	(16c#/LL	.	.	.	.	.
.	16A/J	.	.	.	.	.
4r	8a/	.	.	.	.	.
.	8f#/J)	.	.	.	.	.
=5	=5	=5	=5	=5	=5	=5
!	!	!	!	!	!	!LO:DY:a
8FF#'/	8r	.	8cc#\	Nie	Pour-	p
!	!	!	!LO:TX:a:i:t=grazioso	!	!	!
8r	(16c#/LL	.	8cc#\	bę-	-quoi	.
.	16A/J	.	.	.	.	.
4r	8a/	.	8a/	-dę	te	.
.	8f#/J)	.	8f#/	cię	cueil-	.
*Xped	*	*	*	*	*	*
!!LO:LB:g=original
=6	=6	=6	=6	=6	=6	=6
*ped	*	*	*	*	*	*
8EE/	8r	.	8g/	rwa-	-lir,	.
8r	(16d/LL	.	8g/	-ła,	.	.
.	16B/J	.	.	.	.	.
4r	8g/	.	8b\	kon-	blanc	.
.	8e/J)	.	8dd\	-wa-	mu-	.
*Xped	*	*	*	*	*	*
=7	=7	=7	=7	=7	=7	=7
*ped	*	*	*	*	*	*
2AA/ 2E	8r	.	4.cc#\	-lij-	-guet	.
.	(16c#/LL	.	.	.	.	.
.	16A/J	.	.	.	.	.
.	8a/	.	.	.	.	.
.	8g/J)	.	8a/	-ko	que	.
*Xped	*	*	*	*	*	*
=8	=8	=8	=8	=8	=8	=8
*ped	*	*	*	*	*	*
[2DD/ 2AA	8r	.	[2dd\	bia-	j'ai-	.
.	(16c#/LL	.	.	.	.	.
.	16A/J	.	.	.	.	.
.	8a/	.	.	.	.	.
.	8f#/J)	.	.	.	.	.
=9	=9	=9	=9	=9	=9	=9
2DD/] 2D	8r	.	2dd\]	.	.	.
.	(16f#/LL	.	.	.	.	.
.	16d/J	.	.	.	.	.
.	8dd/	.	.	.	.	.
.	8a/J)	.	.	.	.	.
=10	=10	=10	=10	=10	=10	=10
2D\	8r	.	4a/	-ła,	-me	.
.	(16d/LL	.	.	.	.	.
.	16A/J	.	.	.	.	.
.	8f#/	.	4r	.	.	.
.	8d/J)	.	.	.	.	.
!!LO:LB:g=original
=11	=11	=11	=11	=11	=11	=11
*ped	*	*	*	*	*	*
8FF#/	8r	.	8a/	Bo	Et	.
8r	(16c#/LL	.	8cc#\	byś	pren-	.
.	16A/J	.	.	.	.	.
4r	8a/	.	8a/	ty	-dre au	.
.	8f#/J)	.	8f#/	na	prin-	.
*Xped	*	*	*	*	*	*
=12	=12	=12	=12	=12	=12	=12
*	*	*	*^	*	*	*
*ped	*	*	*	*	*	*	*
8BB/	8r	.	8f#/	4ryy	mo-	-temps	.
8r	(16d/LL	.	8f#/	.	-ją	son	.
.	16B/J	.	.	.	.	.	.
4r	8a/	.	8d/	8d\L	pło-	char-	.
.	8f#/J)	.	8a/	8a\J	-chość	.	.
*Xped	*	*	*	*	*	*	*
*	*	*	*v	*v	*	*	*
=13	=13	=13	=13	=13	=13	=13
*ped	*	*	*	*	*	*
2EE/ 2E	8r	.	8g#X/	na-	-mant	.
.	(16d/LL	.	8e/	-rze-	em-	.
.	16B/J	.	.	.	.	.
.	8g#X/	.	[4b\	-ka-	-ble-	.
.	8e/J)	.	.	.	.	.
=14	=14	=14	=14	=14	=14	=14
[2E\	8r	.	2b\_	.	.	.
.	(16e/LL	.	.	.	.	.
.	16d/J	.	.	.	.	.
.	8b/	.	.	.	.	.
.	8g#X/J)	.	.	.	.	.
*Xped	*	*	*	*	*	*
=15	=15	=15	=15	=15	=15	=15
*ped	*	*	*	*	*	*
2AA/ 2E]	8r	.	2b\]	.	.	.
.	(16e/LL	.	.	.	.	.
.	16d/J	.	.	.	.	.
.	8dd/	.	.	.	.	.
.	8g#X/J)	.	.	.	.	.
*Xped	*	*	*	*	*	*
!!LO:LB:g=original
=16	=16	=16	=16	=16	=16	=16
*ped	*	*	*	*	*	*
2AA/ 2E	8r	.	4a/	-ła	-me	.
.	(16e/LL	.	.	.	.	.
.	16c#/J	.	.	.	.	.
.	8cc#/	.	4r	.	.	.
.	8a/J)	.	.	.	.	.
=17	=17	=17	=17	=17	=17	=17
*^	*	*	*	*	*	*
(4E/	2AA\	8r	.	8a/	Nie	A	.
.	.	(16e/LL	.	8a/	mam	quoi	.
.	.	16c#/J	.	.	.	.	.
*Xped	*	*	*	*	*	*	*
!	!	!	!	!	!	!	!LO:HP:a
4E#X/)	.	8cc#/	<	8g#X/	ja	bon	<
.	.	8a/J)	.	8a/	dziś	flé-	.
=18	=18	=18	=18	=18	=18	=18	=18
*	*	*	*	*^	*	*	*
2F#/	(4AA\	8r	.	(<8f#/	4f#\	ko-	-trir	.
.	.	(16f#/LL	.	8f#/	.	-mu	.	.
.	.	16d/J	.	.	.	.	.	.
.	4BB\)	8dd/	.	8b\)	4ryy	kwia-	.	.
.	.	8b/J)	.	8dd\	.	-ty	la	.
=19	=19	=19	=19	=19	=19	=19	=19	=19
2G#X/	(4BB\	8r	.	4ee/	4ryy	nieść	fleur	.
.	.	(16g#X/LL	.	.	.	.	.	.
.	.	16e/J	.	.	.	.	.	.
.	4BB-X\)	8ee/	.	4dd/	8dd\	do	la	.
!	!	!	!	!	!LO:N:cue	!	!	!
.	.	8dd/J)	.	.	8dd\	plus	.	.
*v	*v	*	*	*v	*v	*	*	*
=20	=20	=20	=20	=20	=20	=20
*ped	*	*	*	*	*	*
2D\ 2A	8r	.	[2ff#\	do-	ten-	.
.	(16a\LL	.	.	.	.	.
.	16f#\J	.	.	.	.	.
.	8ff#\	.	.	.	.	.
.	8dd\J)	.	.	.	.	.
!!LO:PB:g=original
=21	=21	=21	=21	=21	=21	=21
4DD/ 4AA	8r	.	2ff#\]	.	.	.
.	(16a\LL	.	.	.	.	.
.	16f#\J	.	.	.	.	.
4r	8ff#\	.	.	.	.	.
.	8dd\J)	.	.	.	.	.
=22	=22	=22	=22	=22	=22	=22
2D\ 2A	8r	.	4f#/	-mu	-dre	.
.	(16a\LL	.	.	.	.	.
.	16f#\J	.	.	.	.	.
.	8ff#\	.	4r	.	.	.
.	8dd\J)	.	.	.	.	.
=23	=23	=23	=23	=23	=23	=23
*^	*	*	*	*	*	*
(4A/	[2D\	8r	.	8f#/	Nikt	Nul	.
*Xped	*	*	*	*	*	*	*
.	.	(16a\LL	.	8a/	mi	en	.
.	.	16f#\J	.	.	.	.	.
4A#X/	.	8ff#\	.	8dd\	ich	mes	.
!	!	!	!	!	!	!	!LO:HP:a
.	.	8dd\J)	.	8cc#\	nie	che-	>
=24	=24	=24	=24	=24	=24	=24	=24
*	*	*	*	*^	*	*	*
2B/)	4D\]	8r	>	8b/	4b\	wyj-	-veux	.
.	.	(16b\LL	.	8b/	.	-mie	.	.
.	.	16g\J	.	.	.	.	.	.
.	4C#\	8gg\	.	8ee\	4ryy	z wło-	ne	.
.	.	8ee\J)	.	8g/	.	-sów	vien-	.
*v	*v	*	*	*v	*v	*	*	*
=25	=25	=25	=25	=25	=25	=25
*ped	*	*	*	*	*	*
[2C#\ [2A#X	8r	.	8f#/	po	-drait	]
.	(16a#X\LL	.	8e/	kry-	la	.
.	16f#\J	.	.	.	.	.
.	8ff#\	.	[4f#/	-jo-	pren-	.
.	8ee\J)	]	.	.	.	.
!!LO:LB:g=original
=26	=26	=26	=26	=26	=26	=26
(<2C#\] 2A#_	8r	.	2f#/_	.	.	.
.	(16a#X\LL	.	.	.	.	.
.	16f#\J	.	.	.	.	.
.	8ff#\	.	.	.	.	.
*Xped	*	*	*	*	*	*
.	8ee\J)	.	.	.	.	.
=27	=27	=27	=27	=27	=27	=27
2Cn\) 2A#]	8r	.	2f#/]	.	.	.
.	16f#/LL	.	.	.	.	.
.	16e/J	.	.	.	.	.
.	8ee/	.	.	.	.	.
.	8a#X/J	.	.	.	.	.
=28	=28	=28	=28	=28	=28	=28
*^	*	*	*	*	*	*
*ped	*	*	*	*	*	*	*
4r	2BB\ 2F#	8r	.	4f#/	-mu	-dre	.
.	.	16f#/LL	.	.	.	.	.
.	.	16d/J	.	.	.	.	.
4G#X/	.	8dd/	.	4r	.	.	.
.	.	8b/J	.	.	.	.	.
*Xped	*	*	*	*	*	*	*
*v	*v	*	*	*	*	*	*
=29	=29	=29	=29	=29	=29	=29
*ped	*	*	*	*	*	*
!	!	!	!	!	!	!LO:DY:a
2F#\ 2A	8r	.	8f#/	Nie	Je	p
.	16f#/LL	.	8f#/	ma	n'en	.
.	16c#/J	.	.	.	.	.
.	8cc#/	.	8a/	już	sais	.
.	8a/J	.	8cc#\	są-	qu'un	.
*Xped	*	*	*	*	*	*
=30	=30	=30	=30	=30	=30	=30
*	*	*	*^	*	*	*
!LO:TX:b:i:t=simile	!	!	!	!	!	!	!
2F#\ 2G#X 2B	8r	.	4g#X/	4ryy	-sia-	seul,	.
.	16g#X/LL	.	.	.	.	.	.
.	16d/J	.	.	.	.	.	.
.	8dd/	.	8b/	(8b\L	j'at	.	.
.	8b/J	.	8dd/	8dd\J)	co	.	.
*	*	*	*v	*v	*	*	*
!!LO:LB:g=original
=31	=31	=31	=31	=31	=31	=31
!	!	!	!	!	!	!LO:HP:a:t=poco cresc.
2F#\ 2A	8r	.	4f#/	kwia-	tends	<
!	!	!LO:HP:t=poco cresc.	!	!	!	!
.	16f#/LL	<	.	.	.	.
.	16c#/J	.	.	.	.	.
.	8cc#/	.	8a/	-ty	son	.
.	8a/J	.	8cc#\	wy-	re	.
=32	=32	=32	=32	=32	=32	=32
*	*	*	*^	*	*	*
2Fn\ 2A	8r	.	8b/	4b\	-kra-	tour,	.
.	16a/LL	.	8b/	.	-da	.	.
.	16d/J	.	.	.	.	.	.
.	8dd/	.	8r	4ryy	.	.	.
.	8b/J	.	8dd\	.	Zdra-	A	.
*	*	*	*v	*v	*	*	*
=33	=33	=33	=33	=33	=33	=33
2EE/ 2E	8r	.	(<4ee\	-dzie-	lui	.
.	16e/LL	.	.	.	.	.
.	16c#/J	.	.	.	.	.
.	8cc#/	.	8cc#\)	-cki	.	.
.	8a/J	.	8a/	to	je	.
=34	=34	=34	=34	=34	=34	=34
*^	*	*	*^	*	*	*
4r	[2EE\ 2BB	8r	.	8f#/	8f#\L	chło-	gar-	.
.	.	16f#/LL	.	8a/	8a\J	-piec	.	.
.	.	16d/J	.	.	.	.	.	.
(4F#/	.	8dd/	.	8b\	4ryy	a-	-de	.
.	.	8a/J	.	8dd\	.	-le	ce	.
*v	*v	*	*	*	*	*	*	*
=35	=35	=35	=35	=35	=35	=35	=35
*	*^	*	*	*	*	*	*
!	!	!	!	!LO:TX:a:t=poco rit.	!LO:N:vis=4.	!	!	!
2EE/]) 2E	8r	8ryy	.	4.cc#/	4cc#\	słod-	ga-	.
!	!LO:TX:a:i:t=poco rit.	!	!	!	!	!	!	!
!	!LO:N:vis=16.	!	!	!	!	!	!	!
.	16e/LL	4.e\	.	.	.	.	.	.
.	[<16d/JJ	.	.	.	.	.	.	.
!	!	!	!	!	!LO:N:cue	!	!	!
.	4d/] 4g#X	.	.	.	8b\	.	-ge	.
.	.	.	.	8b/	8b\	-ka	d'a	.
*	*	*	*	*v	*v	*	*	*
!!LO:LB:g=original
=36	=36	=36	=36	=36	=36	=36	=36
!	!LO:TX:b:i:t=a tempo	!	!	!LO:TX:a:i:t=a tempo	!	!	!LO:DY:a
4.AA/ 4.E	8r	4ryy	.	[2ee\	zdra-	mour	<
.	(>16a/LL	.	.	.	.	.	.
.	16e/J	.	.	.	.	.	.
.	8cc#/)	[4e\	<	.	.	.	.
[8AA/ [8E	(16cc#/L	.	.	.	.	.	.
.	16a/JJ	.	.	.	.	.	.
=37	=37	=37	=37	=37	=37	=37	=37
8AA/] 8E]	8b/L)	4e\]	.	2ee\_	.	.	[[
4AA/ 4E	(16b/L	.	[	.	.	.	.
.	[<16e/J	.	.	.	.	.	.
.	8dd/)	4e\_	.	.	.	.	.
[8AA/ [8E	(16dd/L	.	.	.	.	.	.
.	16b/JJ	.	.	.	.	.	.
=38	=38	=38	=38	=38	=38	=38	=38
*	*	*	*	*^	*	*	*
!	!	!	!	!	!LO:N:cue	!	!	!
8AA/] 8E]	8cc#/L)	2e\_	.	[<4a/	4ee\_>	-da	.	.
4AA/ 4E	(16cc#/L	.	.	.	.	.	.	.
.	16a/J	.	.	.	.	.	.	.
!	!	!	!	!	!LO:N:cue	!	!	!
.	8ee/)	.	.	8a/]	8ee\]	.	.	.
[8AA/ [8E	(16ee/L	.	.	8r	8ryy	.	.	.
.	16cc#/JJ	.	>	.	.	.	.	.
*	*	*	*	*v	*v	*	*	*
=39	=39	=39	=39	=39	=39	=39	=39
!	!LO:TX:b:i:t=poco a poco rall.	!	!	!	!	!	!
8AA/] 8E]	8dd/L)	4e\]	.	2r	.	.	.
[4.AA/ [4.E	(16dd/L	.	.	.	.	.	.
.	16b/J	.	.	.	.	.	.
.	8ff#/)	4r	.	.	.	.	.
.	(16ff#/L	.	.	.	.	.	.
.	16dd/JJ	.	.	.	.	.	.
*	*v	*v	*	*	*	*	*
=40	=40	=40	=40	=40	=40	=40
*ped	*	*	*	*	*	*
4.AA/] 4.E]	[2cc#:\) [2aa:	]	2r	.	.	.
(16A\LL	.	.	.	.	.	.
16E\JJ	.	.	.	.	.	.
=41	=41	=41	=41	=41	=41	=41
4.c#\)	4cc#\] 4aa]	.	2r	.	.	.
.	8r	.	.	.	.	.
8r	(16e/LL	p	.	.	.	.
.	16c#/JJ	.	.	.	.	.
!!LO:PB:g=original
=42	=42	=42	=42	=42	=42	=42
*	*^	*	*	*	*	*
2ryy	4.a/)	4.ryy	.	2r	.	.	.
.	(>16e/LL	[>8e\	pp	.	.	.	.
.	[<16c#/JJ	.	.	.	.	.	.
=43	=43	=43	=43	=43	=43	=43	=43
2ryy	2c#/] 2e] 2a)	2r	.	2r	.	.	.
*	*v	*v	*	*	*	*	*
=44	=44	=44	=44	=44	=44	=44
!	!LO:TX:b:i:t=a tempo	!	!LO:TX:a:i:t=a tempo	!	!	!LO:DY:a:rj
4AA/	8r	.	8cc#\	Mo-	Clo-	p
.	(16e/LL	.	8cc#\	-żesz	-chet-	.
.	16c#/JJ	.	.	.	.	.
4r	4a/)	.	8a/	więc	-te	.
.	.	.	8f#/	w spo-	d'ar-	.
*Xped	*	*	*	*	*	*
=45	=45	=45	=45	=45	=45	=45
4EE/	8r	.	8g/	-ko-	-gent	.
.	(16e/LL	.	8g/	-ju	.	.
.	16B/JJ	.	.	.	.	.
4r	4g/)	.	8b\	ro-	fleu-	.
.	.	.	8dd\	-snąć	-ris	.
=46	=46	=46	=46	=46	=46	=46
4AA/	8r	.	4cc#\	tu	la	.
.	(16c#/LL	.	.	.	.	.
.	16A/JJ	.	.	.	.	.
4r	4g/)	.	4a/	przy	ver-	.
!!LO:LB:g=original
=47	=47	=47	=47	=47	=47	=47
[2DD/ 2AA	8r	.	[2dd\	zdro-	-du-	.
.	(16d/LL	.	.	.	.	.
.	16A/JJ	.	.	.	.	.
.	4f#/)	.	.	.	.	.
=48	=48	=48	=48	=48	=48	=48
2DD/] 2D	8r	.	2dd\]	.	.	.
.	(16f#/LL	.	.	.	.	.
.	16d/J	.	.	.	.	.
.	8dd/	.	.	.	.	.
.	8a/J)	.	.	.	.	.
=49	=49	=49	=49	=49	=49	=49
2D\	8r	.	4a/	-ju	-re	.
.	(16d/LL	.	.	.	.	.
.	16A/J	.	.	.	.	.
.	8f#/	.	4r	.	.	.
.	8d/J)	.	.	.	.	.
=50	=50	=50	=50	=50	=50	=50
8FF#/	8r	.	8a/	Nic	Au-	.
8r	(16c#/LL	.	8cc#\	mi	-jourd'-	.
.	16A/J	.	.	.	.	.
4r	8a/	.	8a/	dziś	-hui	.
.	8f#/J)	.	8f#/	nie	mon	.
!!LO:LB:g=original
=51	=51	=51	=51	=51	=51	=51
*	*	*	*^	*	*	*
!	!	!	!	!	!	!	!LO:DY:a
8BB/	8r	.	8g/	4g\	przyj-	front	<
8r	(16d/LL	.	8g/	.	-dzie	.	.
.	16G/J	.	.	.	.	.	.
4r	8g/	<	8b/	4ryy	z kwie-	re-	.
.	8d/J)	.	8dd/	.	-ci-	-ste	.
*	*	*	*v	*v	*	*	*
=52	=52	=52	=52	=52	=52	=52
2AA#X/	8r	.	8ee\	-ste-	sans	[
.	(16e/LL	.	8cc#\	-go	pa-	.
.	16c#/J	.	.	.	.	.
.	8g/	.	[4gg\	stro-	-ru-	.
.	8e/J)	.	.	.	.	.
=53	=53	=53	=53	=53	=53	=53
2FF#/ 2F#	8r	.	2gg\_	.	.	.
.	(16e/LL	.	.	.	.	.
.	16c#/J	.	.	.	.	.
.	8a#X/	.	.	.	.	.
.	8e/J)	.	.	.	.	.
=54	=54	=54	=54	=54	=54	=54
2F#\	8r	.	2gg\]	.	.	.
.	(16g/LL	.	.	.	.	.
.	16e/J	.	.	.	.	.
.	8cc#/	.	.	.	.	.
.	8a#X/J)	.	.	.	.	.
!!LO:LB:g=original
=55	=55	=55	=55	=55	=55	=55
*^	*	*	*	*	*	*
2F#/	(4BB\	8r	.	4ff#\	-ju	-re	.
.	.	(16f#/LL	.	.	.	.	.
.	.	16d/J	.	.	.	.	.
.	4C#\	8dd/	.	4r	.	.	.
.	.	8b/J)	.	.	.	.	.
=56	=56	=56	=56	=56	=56	=56	=56
2B/	4D\	8r	.	8ff#\	Lec	Mais	.
.	.	(16f#/LL	.	8ff#\	gdy	quand	.
.	.	16d/J	.	.	.	.	.
.	4F#\)	8dd/	.	8dd\	wró-	re-	.
.	.	8b/J)	.	8cc#\	-ci	-vien-	.
*v	*v	*	*	*	*	*	*
=57	=57	=57	=57	=57	=57	=57
*	*	*	*^	*	*	*
2E\ 2G	8r	.	8b/	4b\	lu-	-dra	.
.	(16g/LL	.	8b/	.	-by	.	.
.	16d/J	.	.	.	.	.	.
.	8dd/	.	8ee\	4ryy	za-	le	.
.	8b/J)	.	8gg\	.	-wrzeć	voi-	.
=58	=58	=58	=58	=58	=58	=58	=58
4F#\	8r	.	(4dd\	4ryy	ze	-sin	.
.	(16e/LL	.	.	.	.	.	.
.	16A#X/J	.	.	.	.	.	.
4FF#/	8cc#/	.	8cc#/	8cc#\L	.	que	.
.	8a#X/J)	.	8ee/)	8ee\J	mną	.	.
*	*	*	*v	*v	*	*	*
!!LO:PB:g=original
=59	=59	=59	=59	=59	=59	=59
2G\	8r	.	(4b\	ślu-	j'ai-	.
.	(16d/LL	.	.	.	.	.
.	16B/J	.	.	.	.	.
.	8b/	.	8dd\)	.	.	.
.	8e#X/J)	.	[8dd\	-by	-me	.
=60	=60	=60	=60	=60	=60	=60
2GG/ 2G	8r	.	8dd\]	.	.	.
.	(16e#X/LL	.	8r	.	.	.
.	16d/J	.	.	.	.	.
.	8dd/	.	4r	.	.	.
.	8b/J)	.	.	.	.	.
=61	=61	=61	=61	=61	=61	=61
2GG#X/ 2G#X	8r	.	8dd\	Wte-	Tu	.
.	16b/LL	.	8dd\	-dy	mour-	.
.	16e#X/J	.	.	.	.	.
.	8ee#X/	.	8.b\	kon-	-ras	.
.	8dd/J	.	.	.	.	.
.	.	.	16dd\	-wa-	mu-	.
=62	=62	=62	=62	=62	=62	=62
*	*	*	*^	*	*	*
2AA\ 2A	8r	.	8dd/	8dd\L	-lij-	-guet	.
!	!	!	!	!	!	!	!LO:HP:a
.	16a\LL	>	8a/	8a\J	-ko	.	>
.	16f#\J	.	.	.	.	.	.
.	8ff#\	.	8b\	4ryy	już	tu	.
.	8dd\J	]	8dd\	.	nie	mour-	]]
!!LO:LB:g=original
=63	=63	=63	=63	=63	=63	=63	=63
!	!	!	!	!	!	!	!LO:DY:a:rj
[2AA:\ [2E: [2B:	8r	p	8gg/	8gg\L	uj-	-ras	p
.	16b\LL	.	8ee/	8ee\J	-dziesz	.	.
.	16g\J	.	.	.	.	.	.
.	8gg\	.	4r	4ryy	.	.	.
.	8ee\J	.	.	.	.	.	.
*	*	*	*v	*v	*	*	*
=64	=64	=64	=64	=64	=64	=64
2AA\] 2E] 2B]	8r	.	2r	.	.	.
.	16b\LL	.	.	.	.	.
.	16g\J	.	.	.	.	.
.	8gg\	.	.	.	.	.
.	8ee\J	.	.	.	.	.
=65	=65	=65	=65	=65	=65	=65
!	!	!	!	!	!	!LO:HP:a
[2AA:\ [<2E: 2B:	8r	<	8b\	już	tu	<
.	16b\LL	.	8dd\	nie	mour-	.
.	16g\J	.	.	.	.	.
.	8gg\	.	8gg\	uj-	-ras	.
.	8ee\J	.	8ee\	-dziesz	pour	.
=66	=66	=66	=66	=66	=66	=66
*^	*	*	*	*	*	*
2A/	2AA\] 2E]	8r	.	(8cc#\L	zgu-	l'a	.
.	.	16a\LL	.	8a\J	.	.	.
.	.	16g\J	.	.	.	.	.
.	.	8gg\	.	[4ee\)	.	mour	.
.	.	8cc#\J	.	.	.	.	.
*v	*v	*	*	*	*	*	*
!!LO:LB:g=original
=67	=67	=67	=67	=67	=67	=67
2AA/ 2E	8r	.	2ee\_	.	.	.
.	16g/LL	.	.	.	.	.
.	16c#/J	.	.	.	.	.
.	8cc#/	.	.	.	.	.
.	8a/J	.	.	.	.	.
=68	=68	=68	=68	=68	=68	=68
2AA/	8r	.	4.ee\]	.	.	.
.	16c#/LL	.	.	.	.	.
.	16A/J	.	.	.	.	.
.	8a/	.	.	.	.	.
.	8g/J	.	8a/	.	quand	.
=69	=69	=69	=69	=69	=69	=69
*	*^	*	*	*	*	*
!	!	!	!	!	!	!	!LO:DY:a
4.DD/ 4.AA	8r	4ryy	mf	[2dd\	-by.	mê-	f
.	(>16d/LL	.	<	.	.	.	.
.	[16A/J	.	.	.	.	.	.
.	8f#'/)	4A\_	.	.	.	.	.
[8DD/ 8AA	(16f#/L	.	.	.	.	.	.
.	16d/JJ	.	.	.	.	.	.
=70	=70	=70	=70	=70	=70	=70	=70
8DD/] 8AA	8e'/L)	4A\]	.	2dd\_	.	.	.
4DD/ 4AA	(16e/L	.	.	.	.	.	.
.	[<16A/J	.	.	.	.	.	.
.	8g/)	4A\_	.	.	.	.	.
[8DD/ [8AA	(16g/L	.	.	.	.	.	.
.	16e/JJ	.	[	.	.	.	.
!!LO:LB:g=original
=71	=71	=71	=71	=71	=71	=71	=71
8DD/] 8AA]	8f#/L)	2A\_	.	8dd\]	.	-me!	.
4DD/ 4AA	(16f#/L	.	.	8r	.	.	.
.	16d/JJ	.	.	.	.	.	.
.	8a/L)	.	.	4r	.	.	.
[8DD/ [8AA	(16a/L	.	.	.	.	.	.
.	16f#/JJ	.	.	.	.	.	.
=72	=72	=72	=72	=72	=72	=72	=72
!	!	!	!LO:HP:t=dim. e rall.	!	!	!	!
8DD/] 8AA]	8g/L)	4A\]	>	2r	.	.	.
[4.DD/ [4.AA	(16g/L	.	.	.	.	.	.
.	16e/JJ	.	.	.	.	.	.
.	8b/L)	4r	.	.	.	.	.
.	(16b/L	.	.	.	.	.	.
.	16g/JJ)	.	.	.	.	.	.
*	*v	*v	*	*	*	*	*
=73	=73	=73	=73	=73	=73	=73
*^	*	*	*	*	*	*
4.DD/] 4.AA]	4.ryy	[2f#:/ [2dd:	.	2r	.	.	.
16AA/LL	[>8AA\	.	.	.	.	.	.
[<16DD/JJ	.	.	.	.	.	.	.
=74	=74	=74	=74	=74	=74	=74	=74
4.DD/] 4.AA] 4.D	4.ryy	2f#/_ 2dd_	.	2r	.	.	.
[8A/	16A\LL	.	pp	.	.	.	.
.	[16D\JJ	.	.	.	.	.	.
*v	*v	*	*	*	*	*	*
=75	=75	=75	=75	=75	=75	=75
2D;<\] 2A] 2d	2f#;/] 2dd]	.	2r;	.	.	.
==	==	==	==	==	==	==
*-	*-	*-	*-	*-	*-	*-
!!!system-decoration: s1{(s2,s3)}
!!!RDF**kern: < = below
!!!RDF**kern: > = above
!!!ENC: Anastazja Marusiak
!!!END: 2023-10-23
!!!EED: Marta Chmielewska
!!!EEV: 2023-11-11
